assets/fc/fc-add-image.svg

<svg xmlns="http://www.w3.org/2000/svg" width="100%" height="100%" viewBox="0 0 48 48"><path fill="#8CBCD6" d="M40 41H8c-2.2 0-4-1.8-4-4V11c0-2.2 1.8-4 4-4h32c2.2 0 4 1.8 4 4v26c0 2.2-1.8 4-4 4z"/><circle cx="35" cy="16" r="3" fill="#B3DDF5"/><path fill="#9AC9E3" d="M20 16L9 32h22z"/><path fill="#B3DDF5" d="M31 22l-8 10h16z"/><circle cx="38" cy="38" r="10" fill="#43A047"/><g fill="#fff"><path d="M36 32h4v12h-4z"/><path d="M32 36h12v4H32z"/></g></svg>

<svg xmlns="http://www.w3.org/2000/svg" width="100%" height="100%" viewBox="0 0 48 48"><path fill="#8CBCD6" d="M40,41H8c-2.2,0-4-1.8-4-4V11c0-2.2,1.8-4,4-4h32c2.2,0,4,1.8,4,4v26C44,39.2,42.2,41,40,41z"/><circle cx="35" cy="16" r="3" fill="#B3DDF5"/><path fill="#9AC9E3" d="M20 16L9 32 31 32z"/><path fill="#B3DDF5" d="M31 22L23 32 39 32z"/><circle cx="38" cy="38" r="10" fill="#43A047"/><g fill="#fff"><path d="M36 32H40V44H36z"/><path d="M32 36H44V40H32z"/></g></svg>
